!!!!SEGMENT: pl-lzu--m-15111--001-003_noskowski-zygmunt--spiewnik-dla-dzieci-op-34-3-wiatr.krn
!!!cenid: 18xx:4700
!!!COM: Noskowski, Zygmunt
!!!COM-rismID: pe106604
!!!CDT: 1846/05/02-1909/07/23
!!!CNT: Polish
!!!GTL: Śpiewnik dla dzieci, op. 34
!!!OTL: 3. Wiatr
!!!OMV: 003
!!!PDT: 1890
!!!AGN: Secular; Song; Children
!!!YEC: Copyright 2022 Narodowy Instytut Fryderyka Chopina (https://polishscores.org)
!!!YEM: License CC-BY-4.0 (https://creativecommons.org/licenses/by/4.0)
!!!SMS-siglum: PL-LŹu
!!!SMS-shelfmark: M 15111
!!!SMS-variant:
!!!SMS-altvar:
!!!SMS-shelfwork: 001-003 G
!!!NIFC-rismSourceID: 1001234040
!!!NIFC-rismChildID: 1001234040
!!!NIFC-islandoraID: pl-lzu:5455
!!!URL-pdf-islandora: https://repozytorium.nifc.pl/islandora/object/pl-lzu%3A5455/datastream/PDF/view
!!!URL-scan: https://polish.musicsources.pl/pl/lokalizacje/galeria/druki-muzyczne/23228/10 @EN{Scan on Polish Music Sources Website} @PL{Skany w portalu Dziedzictwo Muzyki Polskiej w otwartym dostępie}
!!!IIIF:
!!!ONB-nifc:
!!!AIN: 1 piano 1 vox
!!!key: c#
!!!OMD: Andantino con moto.
**kern	**kern	**dynam	**kern	**text	**dynam
*part2	*part2	*part2	*part1	*part1	*part1
*staff3	*staff2	*staff2,3	*staff1	*staff1	*staff1
*I"[Piano]	*I"[Piano]	*	*I"[Voice]	*	*
*I'pf	*I'pf	*	*I'V	*	*
*Ipiano	*Ipiano	*	*Ivox	*	*
*ICklav	*ICklav	*	*ICvox	*	*
*IGacomp	*IGacomp	*	*IGsolo	*	*
*clefF4	*clefG2	*	*clefG2	*	*
*k[f#c#g#d#]	*k[f#c#g#d#]	*	*k[f#c#g#d#]	*	*
*c#:	*c#:	*	*c#:	*	*
*M6/8	*M6/8	*	*M6/8	*	*
=1	=1	=1	=1	=1	=1
*	*	*	*	*v :1	*
!	!	!LO:DY:rj	!	!	!LO:DY::rj
4.C#/	8G#/L 8e 8g#	p <	8g#/	Cze-	p <
.	8A/ 8f# 8a	.	8a/	-go	.
.	8A#X/J 8f##X 8a#X	[	8a#X/	ty	[
4.GG#^/	8B^/L 8g# 8b	.	(8b^>/L	ję-	.
.	8A#/ 8f## 8a#	>	8a#/J)	.	>
!	!LO:N:n=2:acc=n#	!	!	!	!
.	8An/J 8f#X 8an	]	8an/	-czysz,	]
=2	=2	=2	=2	=2	=2
4.C#/	8G#/L 8e 8g#	<	8g#/	ty	<
.	8A/ 8f# 8a	.	8a/	buj-	.
.	8A#X/J 8f##X 8a#X	[	8a#X/	-ny	[
4GG#/	8B/L 8g# 8b	>	(8b/L	wie-	>
.	8A#/ 8f## 8a#	.	8a#/J)	.	.
!	!LO:N:n=2:acc=n#	!	!	!	!
8BB#X/	8An/J 8f#X 8an	]	8an,/	-trze	]
=3	=3	=3	=3	=3	=3
4.C#/	8G#/L 8e 8g#	.	8g#/	I	.
.	8A/ 8f# 8a	.	8a/	cze-	.
.	8G#/J 8e 8g#	.	8g#/	-go	.
4.GG#/	4.B/ 4.d# 4.b	.	4b/	tak	.
.	.	.	8b/	za	.
!!LO:LB:g=original
=4	=4	=4	=4	=4	=4
*	*^	*	*	*	*
4.BB/	4.d#/ 4.f#	4B\	.	(4.f#/	wo-	.
.	.	8A\	.	.	.	.
.	.	.	.	8qg#/	.	.
4EE/	4G#/ 4e 4g#	4.ryy	.	4g#/)	-dzisz?	.
8r	8r	.	.	8r	.	.
*	*v	*v	*	*	*	*
=5	=5	=5	=5	=5	=5
4.GG#/	8B/L 8d# 8g#	.	8g#/	Cze-	.
.	8G#/ 8B 8d#	.	8d#/	-mu	.
.	8G#/J 8B 8d#	.	8d#/	nie	.
4.C#/	8G#/L 8c# 8e	.	8e/	sie-	.
.	8d#/ 8f#	.	8f#/	-dzisz	.
.	8c#/J 8e 8g#	.	8g#/	w cha-	.
=6	=6	=6	=6	=6	=6
4.GG#/	8B/L 8d# 8g#	.	(8g#/L	-tecz-	.
.	8G#/ 8B 8d#	.	8d#/J)	.	.
.	8G#/J 8B 8d#	.	8d#/	-ce	.
4.C#/	8G#/L 8c# 8e	.	(8e/L	swo-	.
.	8d#/ 8f#	.	8f#/J)	.	.
.	8c#/J 8e 8g#	.	8g#,/	-jej,	.
=7	=7	=7	=7	=7	=7
*^	*^	*	*	*	*
4.FF#/	4.ryy	8A/L 8c# 8a	4.ryy	.	8a/	Tyl-	.
.	.	8B/ 8c# 8g#	.	.	8g#/	-ko	.
.	.	8A/J 8c# 8f#	.	.	8f#/	po	.
4C#/	4FF#\	4e/	4A\	.	4e/	po-	.
8D#/	8ryy	8d#/	8ryy	.	8d#/	-lu	.
!!LO:PB:g=original
=8	=8	=8	=8	=8	=8	=8	=8
4D#/	[4.GG#\	4f#/	[4.B#X\	.	(4f#/	cho-	.
8E/	.	8e/	.	.	8e/)	.	.
8F#/	8GG#\]	8d#/L	8B#\]	.	4d#/	-dzisz?	.
8r	4ryy	8G#/ 8g#	4ryy	.	.	.	.
8r	.	8G#/J 8g#	.	.	8r	.	.
*v	*v	*	*	*	*	*	*
*	*v	*v	*	*	*	*
=9	=9	=9	=9	=9	=9
4.CC#/ 4.C#	8G#/L 8e 8g#	<	8g#/	Oj!	<
.	8A/ 8f# 8a	.	8a/	te-	.
.	8A#X/J 8f##X 8a#X	[	8a#X/	-go	[
4FFF#^/ 4FF#	8B^/L 8g# 8b	.	(8b^>/L	ję-	.
.	8A#/ 8f## 8a#	>	8a#/J)	.	>
!	!LO:N:n=2:acc=n#	!	!	!	!
8AAA/ 8AA	8An/J 8f#X 8an	]	8an/	-czę,	]
=10	=10	=10	=10	=10	=10
4.CC#/ 4.C#	8G#/L 8e 8g#	<	8f#/	te-	<
.	8A/ 8f# 8a	.	8a/	-go	.
.	8A#X/J 8f##X 8a#X	[	8a#X/	za-	[
4FFF#^/ 4FF#	8B^/L 8g# 8b	.	(8b^>/L	-wo-	.
.	8A#/ 8f## 8a#	>	8a#/J)	.	>
!	!LO:N:n=2:acc=n#	!	!	!	!
8AAA/ 8AA	8An/J 8f#X 8an	]	8an/	-dzę,	]
!!LO:LB:g=original
=11	=11	=11	=11	=11	=11
4.CC#/ 4.C#	8G#/L 8e 8g#	<	8g#/	Mo-	<
.	8A/ 8f# 8a	.	8a/	-je	.
.	8G#/J 8e 8g#	[	8g#/	ty	[
4.GGG#/ 4.GG#	4c#^/ 4e 4cc#	.	4cc#^\	dro-	.
.	8B/ 8e 8b	.	8b\	-gie	.
=12	=12	=12	=12	=12	=12
*	*^	*	*	*	*
4.BBB/ 4.BB	4.F#/ 4.d# 4.f#	4.ryy	.	(4.f#/	dzie-	.
.	.	.	.	8qg#/	.	.
4EE/	4g#/	8G#\L 8d#	>	4g#/)	-cię,	.
.	.	8f#\	.	.	.	.
8r	8r	8e\J	]	8r	.	.
*	*v	*v	*	*	*	*
=13	=13	=13	=13	=13	=13
!	!	!LO:DY:rj	!	!	!LO:DY:rj
(4GG#/	8B/L 8d# 8g#	p	8g#/	Że	p
.	8G#/ 8B 8d#	.	8d#/	nie	.
8FF#/	8G#/J 8B 8d#	.	8d#/	mam	.
8EE/L	8G#/L 8c# 8e	.	8e/	chat-	.
8DD#/	8d#/ 8f#	.	8f#,/	-ki,	.
8CC#/J)	8c#/J 8e 8g#	.	8g#/	ro-	.
!!LO:LB:g=original
=14	=14	=14	=14	=14	=14
(4GG#/	8B/L 8d# 8g#	.	(8g#/L	-dzo-	.
.	8G#/ 8B 8d#	.	8d#/J)	.	.
8FF#/	8G#/J 8B 8d#	.	8d#/	-nej	.
8EE/L	8G#/L 8c# 8e	.	8e/	chat-	.
8DD#/	8d#/ 8f#	.	8f#,/	-ki,	.
8CC#/J)	8G#/J 8e 8g#	.	8g#/	I	.
=15	=15	=15	=15	=15	=15
2.FFF#/ 2.FF#	8A/L 8f# 8a	.	(8a/L	tu-	.
.	8G#/ 8e 8g#	.	8g#/J)	.	.
.	8F#</J 8d# 8f#	.	8f#/	-łam	.
!	!	!LO:HP:a	!	!	!
.	4E</ 4A< 4e	>	4e/	sie	.
.	8D#</ 8A< 8d#	]	8d#/	po	.
=16	=16	=16	=16	=16	=16
*^	*	*	*	*	*
4.F#/ 4.B#X	4.GGG#\ 4.GG#	(4f#/	.	(4f#/	świe-	.
.	.	8d#/)	.	8d#/)	.	.
4.ryy	4CC#;<\ 4GG#	4E<;/ 4c#	.	4c#;/	-cie.	.
.	8r	8r	.	8r	.	.
*v	*v	*	*	*	*	*
==	==	==	==	==	==
*-	*-	*-	*-	*-	*-
!!!system-decoration: p1{p2}
!!!RDF**kern: > = above
!!!RDF**kern: < = below
!!!ENC: Andrzej Gręziak
!!!END: 2025-03-03
!!!ENC: Marta Lawrence
!!!END: 2025-03-18
